resources/images/collections/two-bar-chart-dark.svg

<svg width="380" height="428" viewBox="0 0 380 428" fill="none" xmlns="http://www.w3.org/2000/svg">
<g filter="url(#filter0_d_26137_145038)">
<g filter="url(#filter1_d_26137_145038)">
<path d="M190 192H345V378H190V192Z" fill="url(#paint0_linear_26137_145038)"/>
</g>
<path d="M278.776 238.384C278.776 239.803 278.496 241.165 277.936 242.472C277.376 243.779 276.648 245.048 275.752 246.28C274.856 247.475 273.848 248.632 272.728 249.752C271.608 250.872 270.507 251.936 269.424 252.944C268.864 253.467 268.248 254.064 267.576 254.736C266.941 255.371 266.325 256.024 265.728 256.696C265.131 257.368 264.589 258.003 264.104 258.6C263.656 259.16 263.376 259.627 263.264 260H279.952V267H254.08C254.005 266.589 253.968 266.067 253.968 265.432C253.968 264.797 253.968 264.349 253.968 264.088C253.968 262.296 254.248 260.653 254.808 259.16C255.405 257.667 256.171 256.285 257.104 255.016C258.037 253.709 259.083 252.496 260.24 251.376C261.435 250.256 262.611 249.136 263.768 248.016C264.664 247.157 265.504 246.355 266.288 245.608C267.072 244.824 267.763 244.077 268.36 243.368C268.957 242.621 269.424 241.893 269.76 241.184C270.096 240.437 270.264 239.691 270.264 238.944C270.264 237.301 269.797 236.144 268.864 235.472C267.931 234.8 266.773 234.464 265.392 234.464C264.384 234.464 263.432 234.632 262.536 234.968C261.677 235.267 260.875 235.64 260.128 236.088C259.419 236.499 258.803 236.928 258.28 237.376C257.757 237.787 257.365 238.123 257.104 238.384L252.96 232.56C254.603 231.029 256.507 229.779 258.672 228.808C260.875 227.8 263.227 227.296 265.728 227.296C268.005 227.296 269.965 227.557 271.608 228.08C273.251 228.603 274.595 229.349 275.64 230.32C276.723 231.253 277.507 232.411 277.992 233.792C278.515 235.136 278.776 236.667 278.776 238.384Z" fill="white"/>
<path d="M189.325 180L179 192H345L333.88 180H189.325Z" fill="#6371FF"/>
</g>
<g filter="url(#filter2_d_26137_145038)">
<path d="M35 144H190V378H35V144Z" fill="url(#paint1_linear_26137_145038)"/>
</g>
<path d="M99.92 184.31C101.003 183.862 102.123 183.358 103.28 182.798C104.475 182.201 105.632 181.566 106.752 180.894C107.872 180.185 108.936 179.457 109.944 178.71C110.989 177.926 111.923 177.105 112.744 176.246H118.568V215.054H110.224V187.11C109.104 187.857 107.853 188.548 106.472 189.182C105.091 189.78 103.747 190.302 102.44 190.75L99.92 184.31Z" fill="white"/>
<path d="M44.6411 132L35 144H190L179.617 132H44.6411Z" fill="#6371FF"/>
<path d="M98.3596 6.56153C98.8161 5.99967 99.5563 5.99967 100.013 6.56153L105.885 13.7895C106.342 14.3513 106.342 15.2623 105.885 15.8241L100.013 23.0521C99.5563 23.6139 98.8161 23.6139 98.3596 23.0521L92.4869 15.8241C92.0304 15.2623 92.0304 14.3513 92.4869 13.7895L98.3596 6.56153Z" fill="#2735C2"/>
<path d="M123.998 6.56153C124.455 5.99967 125.195 5.99967 125.652 6.56153L131.524 13.7895C131.981 14.3513 131.981 15.2623 131.524 15.8241L125.652 23.0521C125.195 23.6139 124.455 23.6139 123.999 23.0521L118.126 15.8241C117.669 15.2623 117.669 14.3513 118.126 13.7895L123.998 6.56153Z" fill="#2735C2"/>
<path d="M138 6.61503V32.0329C138 33.5512 136.269 34.5081 134.939 33.7752C130.416 31.2824 121.439 27.1304 111.819 27.1304C102.281 27.1304 93.5484 31.2126 89.0957 33.7118C87.7613 34.4607 86 33.5026 86 31.9724V6.43447C86 4.54835 88.4595 3.82597 89.4795 5.41254L97.4063 17.7432C98.1512 18.9019 99.8457 18.9 100.588 17.7396L110.242 2.64611C110.982 1.49 112.668 1.48277 113.418 2.6325L123.406 17.957C124.154 19.1051 125.838 19.0998 126.579 17.947L134.521 5.59309C135.54 4.00652 138 4.7289 138 6.61503Z" fill="#5060EE"/>
<circle cx="111.839" cy="19.1785" r="4.16871" fill="#2735C2"/>
<defs>
<filter id="filter0_d_26137_145038" x="144" y="160" width="236" height="268" filterUnits="userSpaceOnUse" color-interpolation-filters="sRGB">
<feFlood flood-opacity="0" result="BackgroundImageFix"/>
<feColorMatrix in="SourceAlpha" type="matrix" values="0 0 0 0 0 0 0 0 0 0 0 0 0 0 0 0 0 0 127 0" result="hardAlpha"/>
<feOffset dy="15"/>
<feGaussianBlur stdDeviation="17.5"/>
<feColorMatrix type="matrix" values="0 0 0 0 0.129412 0 0 0 0 0.133333 0 0 0 0 0.145098 0 0 0 0.08 0"/>
<feBlend mode="normal" in2="BackgroundImageFix" result="effect1_dropShadow_26137_145038"/>
<feBlend mode="normal" in="SourceGraphic" in2="effect1_dropShadow_26137_145038" result="shape"/>
</filter>
<filter id="filter1_d_26137_145038" x="155" y="172" width="225" height="256" filterUnits="userSpaceOnUse" color-interpolation-filters="sRGB">
<feFlood flood-opacity="0" result="BackgroundImageFix"/>
<feColorMatrix in="SourceAlpha" type="matrix" values="0 0 0 0 0 0 0 0 0 0 0 0 0 0 0 0 0 0 127 0" result="hardAlpha"/>
<feOffset dy="15"/>
<feGaussianBlur stdDeviation="17.5"/>
<feColorMatrix type="matrix" values="0 0 0 0 0.129412 0 0 0 0 0.133333 0 0 0 0 0.145098 0 0 0 0.08 0"/>
<feBlend mode="normal" in2="BackgroundImageFix" result="effect1_dropShadow_26137_145038"/>
<feBlend mode="normal" in="SourceGraphic" in2="effect1_dropShadow_26137_145038" result="shape"/>
</filter>
<filter id="filter2_d_26137_145038" x="0" y="124" width="225" height="304" filterUnits="userSpaceOnUse" color-interpolation-filters="sRGB">
<feFlood flood-opacity="0" result="BackgroundImageFix"/>
<feColorMatrix in="SourceAlpha" type="matrix" values="0 0 0 0 0 0 0 0 0 0 0 0 0 0 0 0 0 0 127 0" result="hardAlpha"/>
<feOffset dy="15"/>
<feGaussianBlur stdDeviation="17.5"/>
<feColorMatrix type="matrix" values="0 0 0 0 0.129412 0 0 0 0 0.133333 0 0 0 0 0.145098 0 0 0 0.08 0"/>
<feBlend mode="normal" in2="BackgroundImageFix" result="effect1_dropShadow_26137_145038"/>
<feBlend mode="normal" in="SourceGraphic" in2="effect1_dropShadow_26137_145038" result="shape"/>
</filter>
<linearGradient id="paint0_linear_26137_145038" x1="267.5" y1="192" x2="267.5" y2="378" gradientUnits="userSpaceOnUse">
<stop stop-color="#3547E9"/>
<stop offset="1" stop-color="#2E0DBE"/>
</linearGradient>
<linearGradient id="paint1_linear_26137_145038" x1="112.5" y1="144" x2="112.5" y2="378" gradientUnits="userSpaceOnUse">
<stop stop-color="#3547E9"/>
<stop offset="1" stop-color="#2E0DBE"/>
</linearGradient>
</defs>
</svg>

<svg width="380" height="428" viewBox="0 0 380 428" fill="none" xmlns="http://www.w3.org/2000/svg"><g filter="url(#filter0_d_26137_145038)"><g filter="url(#filter1_d_26137_145038)"><path d="M190 192h155v186H190V192Z" fill="url(#paint0_linear_26137_145038)"/></g><path d="M278.776 238.384c0 1.419-.28 2.781-.84 4.088a19.593 19.593 0 0 1-2.184 3.808 32.423 32.423 0 0 1-3.024 3.472 128.254 128.254 0 0 1-3.304 3.192c-.56.523-1.176 1.12-1.848 1.792a45.623 45.623 0 0 0-1.848 1.96 57.047 57.047 0 0 0-1.624 1.904c-.448.56-.728 1.027-.84 1.4h16.688v7H254.08c-.075-.411-.112-.933-.112-1.568v-1.344c0-1.792.28-3.435.84-4.928a18.664 18.664 0 0 1 2.296-4.144 26.428 26.428 0 0 1 3.136-3.64 301.91 301.91 0 0 0 3.528-3.36c.896-.859 1.736-1.661 2.52-2.408a35.887 35.887 0 0 0 2.072-2.24c.597-.747 1.064-1.475 1.4-2.184.336-.747.504-1.493.504-2.24 0-1.643-.467-2.8-1.4-3.472-.933-.672-2.091-1.008-3.472-1.008-1.008 0-1.96.168-2.856.504-.859.299-1.661.672-2.408 1.12-.709.411-1.325.84-1.848 1.288-.523.411-.915.747-1.176 1.008l-4.144-5.824c1.643-1.531 3.547-2.781 5.712-3.752 2.203-1.008 4.555-1.512 7.056-1.512 2.277 0 4.237.261 5.88.784 1.643.523 2.987 1.269 4.032 2.24a7.994 7.994 0 0 1 2.352 3.472c.523 1.344.784 2.875.784 4.592Z" fill="white"/><path d="M189.325 180 179 192h166l-11.12-12H189.325Z" fill="#6371FF"/></g><g filter="url(#filter2_d_26137_145038)"><path d="M35 144h155v234H35V144Z" fill="url(#paint1_linear_26137_145038)"/></g><path d="M99.92 184.31a63.033 63.033 0 0 0 3.36-1.512 51.348 51.348 0 0 0 3.472-1.904 52.713 52.713 0 0 0 3.192-2.184 22.725 22.725 0 0 0 2.8-2.464h5.824v38.808h-8.344V187.11a27.222 27.222 0 0 1-3.752 2.072 55.214 55.214 0 0 1-4.032 1.568l-2.52-6.44Z" fill="white"/><path d="M44.641 132 35 144h155l-10.383-12H44.641Z" fill="#6371FF"/><path d="M98.36 6.562c.456-.562 1.196-.562 1.653 0l5.872 7.228c.457.561.457 1.472 0 2.034l-5.872 7.228c-.457.562-1.197.562-1.653 0l-5.873-7.228c-.457-.562-.457-1.473 0-2.034l5.873-7.228ZM123.998 6.562c.457-.562 1.197-.562 1.654 0l5.872 7.228c.457.561.457 1.472 0 2.034l-5.872 7.228c-.457.562-1.197.562-1.653 0l-5.873-7.228c-.457-.562-.457-1.473 0-2.034l5.872-7.228Z" fill="#2735C2"/><path d="M138 6.615v25.418c0 1.518-1.731 2.475-3.061 1.742-4.523-2.493-13.5-6.645-23.12-6.645-9.538 0-18.27 4.083-22.723 6.582-1.335.749-3.096-.21-3.096-1.74V6.434c0-1.886 2.46-2.608 3.48-1.021l7.926 12.33a1.89 1.89 0 0 0 3.182-.003l9.654-15.094a1.89 1.89 0 0 1 3.176-.014l9.988 15.325a1.89 1.89 0 0 0 3.173-.01l7.942-12.354C135.54 4.007 138 4.73 138 6.615Z" fill="#5060EE"/><circle cx="111.839" cy="19.1785" r="4.16871" fill="#2735C2"/><defs><filter id="filter0_d_26137_145038" x="144" y="160" width="236" height="268" filterUnits="userSpaceOnUse" color-interpolation-filters="sRGB"><feFlood flood-opacity="0" result="BackgroundImageFix"/><feColorMatrix in="SourceAlpha" type="matrix" values="0 0 0 0 0 0 0 0 0 0 0 0 0 0 0 0 0 0 127 0" result="hardAlpha"/><feOffset dy="15"/><feGaussianBlur stdDeviation="17.5"/><feColorMatrix type="matrix" values="0 0 0 0 0.129412 0 0 0 0 0.133333 0 0 0 0 0.145098 0 0 0 0.08 0"/><feBlend mode="normal" in2="BackgroundImageFix" result="effect1_dropShadow_26137_145038"/><feBlend mode="normal" in="SourceGraphic" in2="effect1_dropShadow_26137_145038" result="shape"/></filter><filter id="filter1_d_26137_145038" x="155" y="172" width="225" height="256" filterUnits="userSpaceOnUse" color-interpolation-filters="sRGB"><feFlood flood-opacity="0" result="BackgroundImageFix"/><feColorMatrix in="SourceAlpha" type="matrix" values="0 0 0 0 0 0 0 0 0 0 0 0 0 0 0 0 0 0 127 0" result="hardAlpha"/><feOffset dy="15"/><feGaussianBlur stdDeviation="17.5"/><feColorMatrix type="matrix" values="0 0 0 0 0.129412 0 0 0 0 0.133333 0 0 0 0 0.145098 0 0 0 0.08 0"/><feBlend mode="normal" in2="BackgroundImageFix" result="effect1_dropShadow_26137_145038"/><feBlend mode="normal" in="SourceGraphic" in2="effect1_dropShadow_26137_145038" result="shape"/></filter><filter id="filter2_d_26137_145038" x="0" y="124" width="225" height="304" filterUnits="userSpaceOnUse" color-interpolation-filters="sRGB"><feFlood flood-opacity="0" result="BackgroundImageFix"/><feColorMatrix in="SourceAlpha" type="matrix" values="0 0 0 0 0 0 0 0 0 0 0 0 0 0 0 0 0 0 127 0" result="hardAlpha"/><feOffset dy="15"/><feGaussianBlur stdDeviation="17.5"/><feColorMatrix type="matrix" values="0 0 0 0 0.129412 0 0 0 0 0.133333 0 0 0 0 0.145098 0 0 0 0.08 0"/><feBlend mode="normal" in2="BackgroundImageFix" result="effect1_dropShadow_26137_145038"/><feBlend mode="normal" in="SourceGraphic" in2="effect1_dropShadow_26137_145038" result="shape"/></filter><linearGradient id="paint0_linear_26137_145038" x1="267.5" y1="192" x2="267.5" y2="378" gradientUnits="userSpaceOnUse"><stop stop-color="#3547E9"/><stop offset="1" stop-color="#2E0DBE"/></linearGradient><linearGradient id="paint1_linear_26137_145038" x1="112.5" y1="144" x2="112.5" y2="378" gradientUnits="userSpaceOnUse"><stop stop-color="#3547E9"/><stop offset="1" stop-color="#2E0DBE"/></linearGradient></defs></svg>
